FINK
CUT[TRES FACIUNT COLEGIUM]
REG[Europa, Mitteleuropa, Deutschland]
KEY[F0554  16  G 2/4]
MEL[-5_  1_1_1_1_  2_2_2_
    4_  3_3_5_.4  2__0_
    2_  2_2_2_2_  2_2_2_
    5_  3_6_5_4#_  5__0_
    5_  6_6_5_4#_  5__0_
    -5_  4_4_4_4_  34231_
    -5_  4_4_4_4_  34231_
    3_  6__3__  4__.32  1__-7__  1__0_ //] >>
FCT[Studenten - Lied]
